X:1
T:Gently, Johnny, My Jingalo
M:6/8
L:1/8
K:G
 D| G2 G D2 E| =F2 E D3| G3 ABc| B2 A G2 D| G2 G D2 E| =F2 E D3| B2 c d3|\
 B2 c d3| c2 B A2 G| ^F2 E D3| G2 G ABc| B2 A G2||
